X:1
T:Title
%%score { 1 | ( 2 3 ) }
L:1/8
Q:1/4=100
M:4/4
K:Eb
V:1 treble nm="Grand Piano"
V:2 bass 
V:3 bass 
V:1
 G2 G>F E2 G>[Ac] | [GB]4 [EG]3 [EG] | [DB]2 [DF]>[EG] [FA]2 [GB]>[FA] |[M:3/4] G6 |[M:1/4] E2 | %5
w: D.~B.~Towner * * * * *|||||
[M:4/4] G2 G>G [FA]2 [_G=A]>[GA] | [GB]4 G2 G2 | F2 F>G =Ae d>c | [DB]6 z2 | d2 d>c B2 [FA]>[GB] | %10
w: |||||
 [EG]4 [GB]3 [GB] | c2 A>c e2 d>c |[M:3/4] B6 |[M:1/4] A2 |[M:4/4] G2 G>[FA] [GB]2 G>E | e4 c3 c | %16
w: ||||||
 B2 B>B [EG]<[EG] [DF]2 | E6 z2 |] %18
w: ||
V:2
 [E,B,E]2 [E,B,E]>[E,A,E] [E,G,]2 [E,B,E]>[E,E] | [E,E]4 [E,B,]3 [E,B,] | %2
 [B,,B,]2 [B,,B,]>[B,,B,] [B,,B,]2 [B,,B,]>[B,,B,] |[M:3/4] [E,B,E]6 |[M:1/4] [E,G,]2 | %5
[M:4/4] [E,B,E]2 [E,B,E]>[E,B,E] [E,E]2 [E,E]>[E,E] | [E,E]4 [E,B,E]2 [E,B,E]2 | %7
 [F,=A,E]2 [F,A,E]>[F,B,E] [CE][K:treble][A,G] [F,B,F]>[K:bass][F,E] | [B,,F,]6 z2 | %9
 [B,A]2 [B,CA]>[B,DA] [B,EG]2[K:bass] [B,,B,]>[B,,B,] | [E,B,]4 [E,E]3 [E,E] | %11
 [A,EA]2 [A,CE]>[A,A] [A,CA]2 [A,B,A]>[K:bass][A,E] |[M:3/4] [E,G,E]6 |[M:1/4] [E,CE]2 | %14
[M:4/4] [E,B,E]2 [E,B,E]>[E,B,] [E,E]2 [E,B,E]>[E,B,] | [A,CE]4 [A,EA]3 [A,EA] | %16
 [B,EG]2 [B,EG]>[B,EG][K:bass] [B,,B,]<[B,,B,] [B,,A,]2 | [E,G,]6 z2 |] %18
V:3
 x8 | x8 | x8 |[M:3/4] x6 |[M:1/4] x2 |[M:4/4] x8 | x8 | z4 F,2[K:treble] z2[K:bass] | x8 | %9
 x6[K:bass] x2 | x8 | x15/2[K:bass] x/ |[M:3/4] x6 |[M:1/4] x2 |[M:4/4] x8 | x8 | x4[K:bass] x4 | %17
 x8 |] %18

